X:1
T:Title
%%score 1 { 2 | 3 }
L:1/8
Q:1/4=97
M:4/4
K:Bb
V:1 treble nm="Drawbar Organ, Soprano"
V:2 bass nm="Choir Pad, The Lamb That Was Slain"
V:3 bass 
V:1
 [DF][DF] [DF]2 [DF][DF] [DF]2 | [DF]2 [EG][DF] [_D=E][=DF] [Fd]2- | %2
w: By~William~Batchelder~Bradbury * * * * *||
 [Fd][Fd][Fd][Ec] [Ec][Ec][Ec][DB] | [DB][DB][DB][Fd] [Ec][DB] [CA]2 | F2 [FB]2 [GB][GB] [FB]2 | %5
w: |||
 [DB][DB] [DB]2 [Fd][Fd] [Ge]2 | [Be][Be] [Ff]2 [Dd][B,B] [EG]2 | [EA][EB] [=Ec]2 [EB][EG] F2- | %8
w: |||
 FF [DB]2- [DB][DB] [Fc]2- | [Fc][Fc] [Bd]2 [Fc][Fc] [DB]2- | [DB]F [DB]2- [DB][DB] [Fc]2- | %11
w: |||
 [Fc][Fc] [Bd]2 [Fc][Fc] [DB]2- | [DB]6 z2 |] %13
w: ||
V:2
 B,B, B,2 B,B, B,2 | B,2 B,2 B,B, B,2- | B,B,B,A, A,A,A,B, | DB, B,2 A,B, C2 | %4
 A,2 B,2 B,B,[K:treble] D2 | FD B,2 B,B, B,2 | B,B, F2 D[K:bass]B, B,2 | G,G, G,2 CB, A,2- | %8
 A,F, B,2- B,B,[K:treble] C2- | CC D2 CC B,2- | B,2 z2 z4 | z8 | z8 |] %13
V:3
 B,,B,, B,,2 B,,B,, B,,2 | B,,2 B,,2 B,,B,, z2 | z2 F,2 F,F, F,2 | F,F, F,2 F,F, F,2 | %4
 F,2 D,2 E,G, B,2 | B,,B,, z2 z2 G,2 | G,G, F,2 D,B,, E,2 | E,E, C,2 C,C, F,2- | %8
 F,2 D,2- D,D, F,2- | F,F, B,2 F,F, D,2- | D,2 z2 z4 | z8 | z8 |] %13

